icon-themes/sifr_svg/cmd/lc_choosecontrols.svg

<svg viewBox="0 0 24 24" xmlns="http://www.w3.org/2000/svg"><path d="m13 1c-2.761424 0-5 2.2385763-5 5 .0000004 2.7614237 2.238576 5 5 5 .976397-.001355 1.931031-.288559 2.746094-.826172l3.535156 3.513672c.190299.182668.46186.3125.71875.3125h1v-.414062-.585938c0-.343291-.090308-.55232-.28125-.75l-3.535156-3.515625c.531976-.8127995.815669-1.7629623.816406-2.734375 0-2.7614233-2.238577-4.9999992-5-5zm0 2c1.656855-.0000008 3 1.3431455 3 3s-1.343145 3.0000008-3 3c-1.656854 0-3-1.3431458-3-3s1.343146-3 3-3zm-8 4.9707031c-1.1770348.0362835-.822636.0163587-2 .03125-1.104569-.0000068-2 .8958798-2 1.9999999v10.996094c0 1.10412.895431 1.998047 2 1.998047h16 1c1.108 0 1.73127-.923567 2-1.998047l1-3.998047c.268731-1.07448-.892-2-2-2h-7-8l-1.34375 5.373047c-.0945101.36297-.4197871.625-.8125.625-.466404.00004-.84375-.37754-.84375-.84375v-.15625c-.0063987-1.70092-.0021-4.440017 0-5.998047 0-1.10412.8954304-1.998047 2-1.998047v-.03125z" fill="#555753"/></svg>

<svg xmlns="http://www.w3.org/2000/svg" viewBox="0 0 24 24">
  <path
     style="fill:#555753"
     d="M 13 1 C 10.238576 1 8 3.2385763 8 6 C 8.0000004 8.7614237 10.238576 11 13 11 C 13.976397 10.998645 14.931031 10.711441 15.746094 10.173828 L 19.28125 13.6875 C 19.471549 13.870168 19.74311 14 20 14 L 21 14 L 21 13.585938 L 21 13 C 21 12.656709 20.909692 12.44768 20.71875 12.25 L 17.183594 8.734375 C 17.71557 7.9215755 17.999263 6.9714127 18 6 C 18 3.2385767 15.761423 1.0000008 13 1 z M 13 3 C 14.656855 2.9999992 16 4.3431455 16 6 C 16 7.6568545 14.656855 9.0000008 13 9 C 11.343146 9 10 7.6568542 10 6 C 10 4.3431458 11.343146 3 13 3 z M 5 7.9707031 C 3.8229652 8.0069866 4.177364 7.9870618 3 8.0019531 C 1.895431 8.0019463 1 8.8978329 1 10.001953 L 1 20.998047 C 1 22.102167 1.895431 22.996094 3 22.996094 L 19 22.996094 L 20 22.996094 C 21.108 22.996094 21.73127 22.072527 22 20.998047 L 23 17 C 23.268731 15.92552 22.108 15 21 15 L 14 15 L 6 15 L 4.65625 20.373047 C 4.5617399 20.736017 4.2364629 20.998047 3.84375 20.998047 C 3.377346 20.998087 3 20.620507 3 20.154297 L 3 19.998047 C 2.9936013 18.297127 2.9979 15.55803 3 14 C 3 12.89588 3.8954304 12.001953 5 12.001953 L 5 11.970703 L 5 7.9707031 z "
     />
</svg>
